icons/arrow-right.svg

<svg width="24" height="24" viewBox="0 0 24 24" fill="none" xmlns="http://www.w3.org/2000/svg">
<path fill-rule="evenodd" clip-rule="evenodd" d="M17.7375 12.1001C17.7375 12.5143 17.4017 12.8501 16.9875 12.8501L6.98749 12.8501C6.57327 12.8501 6.23749 12.5143 6.23749 12.1001C6.23749 11.6859 6.57327 11.3501 6.98749 11.3501L16.9875 11.3501C17.4017 11.3501 17.7375 11.6859 17.7375 12.1001Z" fill="black"/>
<path fill-rule="evenodd" clip-rule="evenodd" d="M16.2583 11.9318L12.4717 8.34452C12.171 8.05964 12.1582 7.58494 12.443 7.28424C12.7279 6.98354 13.2026 6.97071 13.5033 7.25559L17.3107 10.8626L17.3178 10.8697C17.9107 11.4626 17.9107 12.4375 17.3178 13.0304L17.3108 13.0375L13.5107 16.7374C13.214 17.0264 12.7391 17.02 12.4502 16.7233C12.1612 16.4265 12.1675 15.9517 12.4643 15.6627L16.2577 11.9691C16.2591 11.9674 16.2625 11.9619 16.2625 11.9501C16.2625 11.9397 16.2599 11.9342 16.2583 11.9318Z" fill="black"/>
</svg>

<svg xmlns="http://www.w3.org/2000/svg" fill="none" viewBox="0 0 24 24">
  <path fill="#000" fill-rule="evenodd" d="M17.738 12.1a.75.75 0 0 1-.75.75h-10a.75.75 0 0 1 0-1.5h10a.75.75 0 0 1 .75.75Z" clip-rule="evenodd"/>
  <path fill="#000" fill-rule="evenodd" d="m16.258 11.932-3.786-3.587a.75.75 0 0 1 1.031-1.09l3.808 3.608.007.007a1.535 1.535 0 0 1 0 2.16l-.007.008-3.8 3.7a.75.75 0 1 1-1.047-1.075l3.794-3.694c.001-.002.005-.007.005-.019a.033.033 0 0 0-.005-.018Z" clip-rule="evenodd"/>
</svg>
